X: 43627
T: Zakynthos, The
R: jig
M: 6/8
K: Aminor
|:{g}a2a gag|e2a a2g|ecc BcB|AFF ~F3|
EAB cBA|FAB cBA|~B2e edB|~B2d cBA:|
|:EAB cBA|FAB cBA|~B2B edB|~B2d cBA|
EAB cBA|FAB cBA|~B2B edB|1 B2A A3:|2 B2A ABc||
|:d2 d2 c2|dc2 B2A|d2 d2 cd|~B3 ~B2A|
d2 d2 c2|dc2 B2A|d2 d2 cd|1 e3 -e2e:|2 e3 -e3||

